dist/img/icon-reaction-s3.svg

<svg width="20" height="20" viewBox="0 0 20 20" fill="none" xmlns="http://www.w3.org/2000/svg">
<path d="M17.0711 2.92891C15.1823 1.0402 12.6711 0 10 0C7.32891 0 4.8177 1.0402 2.92891 2.92891C1.0402 4.8177 0 7.32891 0 10C0 12.6711 1.0402 15.1823 2.92891 17.0711C4.8177 18.9598 7.32891 20 10 20C12.6711 20 15.1823 18.9598 17.0711 17.0711C18.9598 15.1823 20 12.6711 20 10C20 7.32891 18.9598 4.8177 17.0711 2.92891ZM16.2424 16.2424C14.575 17.9098 12.3581 18.8281 10 18.8281C7.64191 18.8281 5.425 17.9098 3.75758 16.2424C2.09016 14.575 1.17188 12.3581 1.17188 10C1.17188 7.64191 2.09016 5.425 3.75758 3.75758C5.425 2.09016 7.64191 1.17188 10 1.17188C12.3581 1.17188 14.575 2.09016 16.2424 3.75758C17.9098 5.425 18.8281 7.64191 18.8281 10C18.8281 12.3581 17.9098 14.575 16.2424 16.2424Z" fill="#959EA8"/>
<path d="M9.99991 9.41406C7.18468 9.41406 4.89429 11.7045 4.89429 14.5197V15.1056H15.1055V14.5197C15.1055 11.7045 12.8151 9.41406 9.99991 9.41406ZM6.10972 13.9338C6.39354 12.0416 8.02995 10.5859 9.99991 10.5859C11.9699 10.5859 13.6063 12.0416 13.8901 13.9338H6.10972Z" fill="#959EA8"/>
<path d="M6.79701 7.73437C7.87697 7.73437 8.75561 6.85573 8.75561 5.77573C8.75561 4.69573 7.87697 3.81714 6.79701 3.81714C5.71705 3.81714 4.83838 4.69577 4.83838 5.77573C4.83838 6.85569 5.71701 7.73437 6.79701 7.73437ZM6.79701 4.98901C7.2308 4.98901 7.58373 5.34194 7.58373 5.77573C7.58373 6.20952 7.2308 6.56249 6.79701 6.56249C6.36322 6.56249 6.01025 6.20956 6.01025 5.77573C6.01025 5.3419 6.36318 4.98901 6.79701 4.98901Z" fill="#959EA8"/>
<path d="M13.2028 3.81714C12.1228 3.81714 11.2441 4.69577 11.2441 5.77573C11.2441 6.85569 12.1228 7.73437 13.2028 7.73437C14.2827 7.73437 15.1614 6.85573 15.1614 5.77573C15.1614 4.69573 14.2828 3.81714 13.2028 3.81714ZM13.2028 6.56249C12.769 6.56249 12.416 6.20956 12.416 5.77573C12.416 5.3419 12.7689 4.98901 13.2028 4.98901C13.6366 4.98901 13.9895 5.34194 13.9895 5.77573C13.9895 6.20952 13.6366 6.56249 13.2028 6.56249Z" fill="#959EA8"/>
</svg>

<svg xmlns="http://www.w3.org/2000/svg" width="20" height="20" fill="none" viewBox="0 0 20 20"><path fill="#959EA8" d="M17.071 2.929A9.94 9.94 0 0 0 10 0a9.94 9.94 0 0 0-7.071 2.929A9.94 9.94 0 0 0 0 10a9.94 9.94 0 0 0 2.929 7.071A9.94 9.94 0 0 0 10 20a9.94 9.94 0 0 0 7.071-2.929A9.94 9.94 0 0 0 20 10a9.94 9.94 0 0 0-2.929-7.071m-.829 13.313A8.77 8.77 0 0 1 10 18.828a8.77 8.77 0 0 1-6.242-2.586A8.77 8.77 0 0 1 1.172 10a8.77 8.77 0 0 1 2.586-6.242A8.77 8.77 0 0 1 10 1.172a8.77 8.77 0 0 1 6.242 2.586A8.77 8.77 0 0 1 18.828 10a8.77 8.77 0 0 1-2.586 6.242"/><path fill="#959EA8" d="M10 9.414a5.11 5.11 0 0 0-5.106 5.106v.586h10.212v-.586A5.11 5.11 0 0 0 10 9.414m-3.89 4.52A3.94 3.94 0 0 1 10 10.586a3.94 3.94 0 0 1 3.89 3.348zm.687-6.2a1.96 1.96 0 0 0 1.959-1.958 1.96 1.96 0 0 0-1.959-1.959 1.96 1.96 0 0 0-1.959 1.959 1.96 1.96 0 0 0 1.959 1.958m0-2.745a.788.788 0 0 1 0 1.573.788.788 0 0 1 0-1.573m6.406-1.172a1.96 1.96 0 0 0-1.959 1.959 1.96 1.96 0 0 0 1.959 1.958 1.96 1.96 0 0 0 1.958-1.958 1.96 1.96 0 0 0-1.958-1.959m0 2.745a.788.788 0 0 1 0-1.573.788.788 0 0 1 0 1.573"/></svg>
